X: 11450
T: Eavesdropper, The
R: jig
M: 6/8
K: Amajor
|:e|AAA cBA|cee ecA|dff ecA|cBB BcB|
AAA cBA|cee ecA|dff ecB|cAA A2:|
|:e|aaa ecA|dff ecA|dff ecA|cBA Bce|
aaa ecA|dff ecA|dff ecB|cAA A2:|

